dist/images/star.svg

<svg viewBox="0 0 72 66" xmlns="http://www.w3.org/2000/svg"><path d="M71.4 25.9h-26l-8.3-24.5-8.3 24.5h-27.9l22 15.1-8.5 24.4 22.6-15.2 21 15.2-8.4-24.4zm-18.6 32.8l-15.9-11.7-17.5 11.7 6.5-18.8-16.9-11.5h21.7l6.3-18.8 6.3 18.8h19.8l-16.7 11.5zm6.3-29h-16.7l-5.4-16-5.4 16h-18.5l14.3 9.8-5.5 16 15-9.9 13.4 9.9-5.5-16z" fill="#ff322b"/></svg>

<svg viewBox="0 0 72 66" xmlns="http://www.w3.org/2000/svg"><path d="M71.4 25.9h-26L37.1 1.4l-8.3 24.5H.9l22 15.1-8.5 24.4L37 50.2l21 15.2L49.6 41zM52.8 58.7L36.9 47 19.4 58.7l6.5-18.8L9 28.4h21.7L37 9.6l6.3 18.8h19.8L46.4 39.9zm6.3-29H42.4l-5.4-16-5.4 16H13.1l14.3 9.8-5.5 16 15-9.9 13.4 9.9-5.5-16z" fill="#ff322b"/></svg>
